dist/icons/svgs/person-walking-solid.svg

<svg xmlns="http://www.w3.org/2000/svg" width="24" height="24" fill="currentcolor" class="icon-person-walking-solid" viewBox="0 0 24 24">
  <path d="M12.5 3.875C12.5 3.21094 12.8516 2.625 13.4375 2.27344C13.9844 1.92188 14.7266 1.92188 15.3125 2.27344C15.8594 2.625 16.25 3.21094 16.25 3.875C16.25 4.57812 15.8594 5.16406 15.3125 5.51562C14.7266 5.86719 13.9844 5.86719 13.4375 5.51562C12.8516 5.16406 12.5 4.57812 12.5 3.875ZM11.1719 9.8125C11.1328 9.8125 11.0938 9.85156 11.0547 9.85156L10.7422 9.96875C10.1172 10.2812 9.60938 10.8281 9.375 11.4922L9.29688 11.7656C9.0625 12.4297 8.35938 12.7812 7.69531 12.5859C7.07031 12.3516 6.71875 11.6484 6.91406 10.9844L7.03125 10.6719C7.46094 9.34375 8.4375 8.25 9.72656 7.70312L10.0391 7.54688C10.8594 7.19531 11.7188 7 12.6172 7C14.375 7 15.9375 8.05469 16.6016 9.65625L17.2266 11.1016L18.0469 11.5312C18.6719 11.8438 18.9062 12.5859 18.5938 13.2109C18.2812 13.8359 17.5391 14.0703 16.9141 13.7578L15.8984 13.25C15.4688 13.0547 15.1562 12.7031 15 12.2734L14.6094 11.375L13.8672 13.9531L15.7812 16.0625C16.0156 16.2969 16.1719 16.5703 16.25 16.8828L17.1484 20.4766C17.3047 21.1406 16.875 21.8047 16.2109 21.9609C15.5469 22.1562 14.8828 21.7266 14.6875 21.0625L13.8281 17.625L11.0938 14.6172C10.5078 13.9922 10.2734 13.0938 10.5078 12.2734L11.1719 9.8125ZM8.90625 17.5469L9.88281 15.125C9.96094 15.2422 10.0781 15.3594 10.1562 15.4766L11.7578 17.1953L11.1719 18.6016C11.0938 18.8359 10.9375 19.0703 10.7812 19.2266L8.35938 21.6484C7.89062 22.1562 7.07031 22.1562 6.60156 21.6484C6.09375 21.1797 6.09375 20.3594 6.60156 19.8906L8.90625 17.5469Z"/>
</svg>

<svg xmlns="http://www.w3.org/2000/svg" width="24" height="24" fill="currentColor" class="icon-person-walking-solid" viewBox="0 0 24 24">
  <path d="M12.5 3.875c0-.664.352-1.25.938-1.602.546-.351 1.289-.351 1.874 0 .547.352.938.938.938 1.602 0 .703-.39 1.29-.937 1.64-.586.352-1.329.352-1.876 0a1.87 1.87 0 0 1-.937-1.64m-1.328 5.938c-.04 0-.078.039-.117.039l-.313.117a2.76 2.76 0 0 0-1.367 1.523l-.078.274a1.303 1.303 0 0 1-1.602.82c-.625-.234-.976-.938-.78-1.602l.116-.312a4.83 4.83 0 0 1 2.696-2.969l.312-.156A6.5 6.5 0 0 1 12.617 7a4.305 4.305 0 0 1 3.985 2.656l.625 1.446.82.43c.625.312.86 1.054.547 1.679a1.24 1.24 0 0 1-1.68.547l-1.016-.508a1.7 1.7 0 0 1-.898-.977l-.39-.898-.743 2.578 1.914 2.11q.351.35.469.82l.898 3.594c.157.664-.273 1.328-.937 1.484-.664.195-1.328-.234-1.523-.898l-.86-3.438-2.734-3.008a2.47 2.47 0 0 1-.586-2.344zm-2.266 7.734.977-2.422c.078.117.195.234.273.352l1.602 1.718-.586 1.407a1.7 1.7 0 0 1-.39.625l-2.423 2.421a1.205 1.205 0 0 1-1.757 0 1.205 1.205 0 0 1 0-1.757z"/>
</svg>
